X: 0
T: Give My Regards to Broadway
P: piffero primo a0523a
O: Geo M Cohan
%R: march
F: http://ancients.sudburymuster.org/mus/ssp/pdf/clemC0.pdf
Z: 2020 John Chambers <jc:trillian.mit.edu>
M: 2/4
L: 1/16
K: D
z2 |\
AB2c d2e2 | d4 c3A | BBBB c2c2 | A8      | AB2c  d2B2 | c2d2  ecBA  | d2B2 c2d2 | e4- ezz2 |
AB2c d2e2 | d4 c3A | BBBB c2c2 | A4- A3z | f^d2B g2f2 | e2^d2 e=ded | f3d  d2e2 | d4- d2  :|


